!!!COM: Haydn, Franz Joseph
!!!OTL: Quartet 
!!!ONM: Opus 09, No. 2
!!!OMV: 3a
!!!CDT: 1732/3/31/-1809/5/31/
!!!OCY: \O3sterreich
**kern	**kern	**kern	**kern
*clefF4	*clefC3	*clefG	*clefG
*k[b-e-a-]	*k[b-e-a-]	*k[b-e-a-]	*k[b-e-a-]
*c:	*c:	*c:	*c:
*M4/4	*M4/4	*M4/4	*M4/4
=1	=1	=1	=1
[1C	8r	4r	4.r
.	[8E-	.	.
.	2.E-]	[2.G	.
.	.	.	8B
.	.	.	8c
.	.	.	8e-
.	.	.	8g
.	.	.	8b
=2	=2	=2	=2
2C]	2E-	2G]	8cc
.	.	.	8ee-
.	.	.	8dd
.	.	.	8cc
8r	4r	4.r	2cc
[4.D	.	.	.
.	[4F	.	.
.	.	[8A-	.
=3	=3	=3	=3
1D]	2F]	2A-]	8b
.	.	.	8B
.	.	.	8d
.	.	.	8f
.	[2F	[2A-	8a-
.	.	.	8b
.	.	.	8dd
.	.	.	8ff
=4	=4	=4	=4
2D	2F]	2A-]	8.aa-
.	.	.	48gg
.	.	.	48aa-
.	.	.	48bb-
.	.	.	8.aa-
.	.	.	48gg
.	.	.	48aa-
.	.	.	48bb-
2r	2r	2r	4aa-
.	.	.	8gg
.	.	.	8b
=5	=5	=5	=5
4r	4r	4.r	2dd
4.E-	4.G	.	.
.	.	8B	.
.	.	8c	8cc
4.r	4.r	4.r	16r
.	.	.	16G
.	.	.	16c
.	.	.	16e-
.	.	.	16g
.	.	.	16b
=6	=6	=6	=6
2r	2.r	2..r	16cc
.	.	.	16dd
.	.	.	16ee-
.	.	.	16ff#
.	.	.	16gg
.	.	.	16bb
.	.	.	16ccc
.	.	.	16bb
8r	.	.	[2ccc
[4AA-	.	.	.
.	4c	.	.
8AA-]	.	8e-	.
=7	=7	=7	=7
[2AA-	2e-	[2f#	8ccc]
.	.	.	8cc
.	.	.	8cc
.	.	.	8cc
8AA-]	8c	8f#]	4ee-
4.r	4.r	4.r	.
.	.	.	8dd
.	.	.	8cc
=8	=8	=8	=8
4r	4r	4.r	2cc
4.GG	4.d	.	.
.	.	8f#	.
.	.	8g	4b
4.r	4.r	4.r	.
.	.	.	4r
==	==	==	==
*-	*-	*-	*-
!!!RWG: This file only contains pitch and duration data.
!!!RWG: Transposing instruments are not transposed.
!!!RWG: Key is interpreted using the Humdrum key tool.
!!!SCA: 
!!!YOR: Trautwein Edition
!!!AGN: chamber; string quartet
!!!AFT: stage1
!!!ENC: F. Bennion
!!!END: 1997/04/15
!!!AST: classical
!!!YEC: Copyright 1994, Center for Computer Assisted Research in the Humanities
!!!YEM: Rights to all derivative electronic formats reserved.
!!!YEM: Refer to licensing agreement for further details.
!!!YEN: United States of America
!!!EED: W.B. Hewlett
!!!KEY: 2319091948
!!!EMD: Converted from MuseData to Humdrum Jul 30, 1999, by Bret Aarden using muse2kern.
!!!VTS: 3967867877
